svg/m/MD.svg

<svg width="20" height="15" viewBox="0 0 20 15" fill="none" xmlns="http://www.w3.org/2000/svg">
<mask id="mask0" mask-type="alpha" maskUnits="userSpaceOnUse" x="0" y="0" width="20" height="15">
<rect width="20" height="15" fill="white"/>
</mask>
<g mask="url(#mask0)">
<path fill-rule="evenodd" clip-rule="evenodd" d="M13 0H20V15H13V0Z" fill="#D9071E"/>
<path fill-rule="evenodd" clip-rule="evenodd" d="M0 0H7V15H0V0Z" fill="#3D58DB"/>
<path fill-rule="evenodd" clip-rule="evenodd" d="M6 0H14V15H6V0Z" fill="#FBCD17"/>
<path fill-rule="evenodd" clip-rule="evenodd" d="M13.574 12.2589L12.9158 12.6185L10.7342 8.62547L11.3924 8.26587L13.574 12.2589ZM6.57092 12.3549L7.22909 12.7145L9.41069 8.72148L8.75252 8.36188L6.57092 12.3549Z" fill="#FD1900"/>
<path fill-rule="evenodd" clip-rule="evenodd" d="M7.1113 5.86808V9.33765C7.1113 10.1084 6.44765 11.1129 6.11294 11.4865C5.77823 11.8602 5.11346 12.7163 5.11346 12.7163V3.38014C5.11346 2.33291 6.11294 1.97317 6.11294 1.97317C6.11294 1.97317 6.94283 2.13735 7.1113 3.38014V4.59136C7.36817 4.79364 8.22589 5.41401 8.77998 5.15213C9.43787 4.84119 9.66511 3.94934 9.66511 3.94934C9.66511 3.94934 9.60359 3.04941 9.33355 3.04941C9.06352 3.04941 9.04195 1.78174 10.0761 1.78174C11.1102 1.78174 11.2308 2.27037 11.2308 2.65989C11.2308 2.86407 11.0671 3.19176 10.9113 3.50358C10.77 3.78663 10.6351 4.05662 10.6351 4.20932C10.6351 4.53025 10.8769 5.15213 11.2308 5.15213C11.4789 5.15213 12.6726 4.68838 13.3635 4.41137V3.38014C13.5319 2.13735 14.3618 1.97317 14.3618 1.97317C14.3618 1.97317 15.3613 2.33291 15.3613 3.38014V12.7163C15.3613 12.7163 14.6965 11.8602 14.3618 11.4865C14.0271 11.1129 13.3635 10.1084 13.3635 9.33765V5.86808H7.1113ZM8.21888 12.395C8.89487 11.9549 9.88371 9.98128 9.88371 9.98128L10.212 10.0575C10.212 10.0575 10.7133 11.3648 12.1873 12.395C10.6162 12.8143 10.212 13.6563 10.212 13.6563C10.212 12.9827 8.21888 12.395 8.21888 12.395ZM8.11002 11.1458C8.56565 11.1458 8.93502 10.796 8.93502 10.3645C8.93502 9.93305 8.56565 9.58327 8.11002 9.58327C7.65438 9.58327 7.28502 9.93305 7.28502 10.3645C7.28502 10.796 7.65438 11.1458 8.11002 11.1458ZM12.95 10.3645C12.95 10.796 12.5806 11.1458 12.125 11.1458C11.6694 11.1458 11.3 10.796 11.3 10.3645C11.3 9.93305 11.6694 9.58327 12.125 9.58327C12.5806 9.58327 12.95 9.93305 12.95 10.3645Z" fill="#A77B3B"/>
<path d="M15.7125 6.50476L16.2862 6.75273L13.9489 12.1602L13.3752 11.9122L15.7125 6.50476Z" fill="#FDFF00"/>
<path opacity="0.3" fill-rule="evenodd" clip-rule="evenodd" d="M6.89996 4.89575H13.5V9.67006C13.5 9.67006 11.8205 10.1759 10.2 11.006C9.00369 10.1185 6.89996 9.67006 6.89996 9.67006V4.89575Z" fill="#E1E5E8"/>
<mask id="mask1" mask-type="alpha" maskUnits="userSpaceOnUse" x="6" y="4" width="8" height="8">
<path fill-rule="evenodd" clip-rule="evenodd" d="M6.89996 4.89575H13.5V9.67006C13.5 9.67006 11.8205 10.1759 10.2 11.006C9.00369 10.1185 6.89996 9.67006 6.89996 9.67006V4.89575Z" fill="white"/>
</mask>
<g mask="url(#mask1)">
<rect x="6.89996" y="8.02075" width="6.6" height="3.125" fill="#3D58DB"/>
<rect x="6.89996" y="4.89575" width="6.6" height="3.125" fill="#FD1900"/>
<path fill-rule="evenodd" clip-rule="evenodd" d="M9.86666 6.30121L9.36644 6.3426L9.65494 5.95344L9.3475 5.55042L9.85025 5.61515L10.043 5.17073L10.2573 5.62462L10.7575 5.58323L10.469 5.97239L10.7764 6.37542L10.2737 6.31068L10.0809 6.7551L9.86666 6.30121Z" fill="#FDFF00"/>
<path fill-rule="evenodd" clip-rule="evenodd" d="M8.96871 5.41976C8.96871 5.41976 7.62501 6.23725 8.07291 6.82409C8.52081 7.41092 9.08461 7.48604 9.08461 7.48604C9.08461 7.48604 7.71011 9.54811 10.1293 10.7262C12.7193 9.58891 11.3572 7.48604 11.3572 7.48604C11.3572 7.48604 12.1545 7.30966 12.3141 6.67515C12.4737 6.04063 11.272 5.31287 11.272 5.31287C11.272 5.31287 12.0218 6.39962 11.8506 6.67515C11.6794 6.95068 10.7625 7.23119 10.1293 7.23119C9.49611 7.23119 8.51835 7.0534 8.36056 6.57194C8.20276 6.09048 8.96871 5.41976 8.96871 5.41976Z" fill="#FDFF00"/>
<path fill-rule="evenodd" clip-rule="evenodd" d="M7.72496 7.49988L8.54996 8.02071L7.72496 8.54154L6.89996 8.02071L7.72496 7.49988Z" fill="#FDFF00"/>
<path fill-rule="evenodd" clip-rule="evenodd" d="M12.675 7.49988L13.5 8.02071L12.675 8.54154L11.85 8.02071L12.675 7.49988Z" fill="#FDFF00"/>
<path fill-rule="evenodd" clip-rule="evenodd" d="M7.69995 9.56238C7.83802 9.56238 7.94995 9.45045 7.94995 9.31238C7.94995 9.17431 7.83802 9.06238 7.69995 9.06238C7.56188 9.06238 7.44995 9.17431 7.44995 9.31238C7.44995 9.45045 7.56188 9.56238 7.69995 9.56238Z" fill="#FDFF00"/>
<path fill-rule="evenodd" clip-rule="evenodd" d="M13.0188 9.08919C12.8041 8.91541 12.4752 8.9659 12.2841 9.20196C12.0929 9.43803 12.1119 9.77027 12.3265 9.94405C12.4431 10.0385 12.3823 9.66324 12.5588 9.42446C12.7071 9.22392 13.1167 9.16852 13.0188 9.08919Z" fill="#FDFF00"/>
</g>
<path fill-rule="evenodd" clip-rule="evenodd" d="M2.96039 7.20559C2.96039 7.20559 3.61922 7.98447 4.23957 7.72981C4.85992 7.47515 4.70952 6.56213 4.70952 6.56213L4.23957 6.98846H3.83953V7.20559L3.52709 6.98846V7.20559H2.96039ZM3.40597 8.40251C3.40597 8.40251 4.20896 9.10284 4.74995 8.90493C5.29095 8.70703 5.1551 7.75905 5.1551 7.75905L4.68515 8.18538H4.28511V8.40251L3.97267 8.18538V8.40251H3.40597ZM5.56835 9.9918C5.02735 10.1897 4.22436 9.48938 4.22436 9.48938H4.79107V9.27225L5.1035 9.48938V9.27225H5.50354L5.97349 8.84592C5.97349 8.84592 6.10934 9.7939 5.56835 9.9918Z" fill="#048F02"/>
<path fill-rule="evenodd" clip-rule="evenodd" d="M8.73704 1.40527H8.11204V1.77752H7.81787V2.40252H8.11204V3.49291H8.73704V2.40252H9.09464V1.77752H8.73704V1.40527Z" fill="#FDFF00"/>
<path fill-rule="evenodd" clip-rule="evenodd" d="M9.47377 2.11536L8.02618 2.48826L9.47377 2.94569V2.11536Z" fill="#DB4400"/>
</g>
</svg>

<svg width="20" height="15" fill="none" xmlns="http://www.w3.org/2000/svg">
  <mask id="a" maskUnits="userSpaceOnUse" x="0" y="0" width="20" height="15">
    <path fill="#fff" d="M0 0h20v15H0z"/>
  </mask>
  <g mask="url(#a)">
    <path fill-rule="evenodd" clip-rule="evenodd" d="M13 0h7v15h-7V0z" fill="#D9071E"/>
    <path fill-rule="evenodd" clip-rule="evenodd" d="M0 0h7v15H0V0z" fill="#3D58DB"/>
    <path fill-rule="evenodd" clip-rule="evenodd" d="M6 0h8v15H6V0z" fill="#FBCD17"/>
    <path fill-rule="evenodd" clip-rule="evenodd" d="M13.574 12.259l-.658.36-2.182-3.994.658-.36 2.182 3.994zm-7.003.096l.658.36L9.411 8.72l-.658-.36-2.182 3.994z" fill="#FD1900"/>
    <path fill-rule="evenodd" clip-rule="evenodd" d="M7.111 5.868v3.47c0 .77-.663 1.775-.998 2.149-.335.373-1 1.23-1 1.23V3.38c0-1.047 1-1.407 1-1.407s.83.164.998 1.407v1.211c.257.203 1.115.823 1.669.561.658-.31.885-1.203.885-1.203s-.061-.9-.331-.9-.292-1.267.742-1.267 1.155.488 1.155.878c0 .204-.164.532-.32.844-.141.283-.276.553-.276.705 0 .321.242.943.596.943.248 0 1.442-.464 2.132-.74V3.38c.169-1.243.999-1.407.999-1.407s1 .36 1 1.407v9.336s-.665-.856-1-1.23c-.335-.373-.999-1.378-.999-2.148v-3.47H7.111zm1.108 6.527c.676-.44 1.665-2.414 1.665-2.414l.328.077s.501 1.307 1.975 2.337c-1.57.42-1.975 1.261-1.975 1.261 0-.673-1.993-1.26-1.993-1.26zm-.109-1.25c.456 0 .825-.349.825-.78 0-.432-.37-.782-.825-.782-.456 0-.825.35-.825.782 0 .431.37.78.825.78zm4.84-.78c0 .431-.37.78-.825.78-.456 0-.825-.349-.825-.78 0-.432.37-.782.825-.782.456 0 .825.35.825.782z" fill="#A77B3B"/>
    <path d="M15.713 6.505l.573.248-2.337 5.407-.574-.248 2.338-5.407z" fill="#FDFF00"/>
    <path opacity=".3" fill-rule="evenodd" clip-rule="evenodd" d="M6.9 4.896h6.6V9.67s-1.68.506-3.3 1.336C9.004 10.12 6.9 9.67 6.9 9.67V4.896z" fill="#E1E5E8"/>
    <mask id="b" maskUnits="userSpaceOnUse" x="6" y="4" width="8" height="8">
      <path fill-rule="evenodd" clip-rule="evenodd" d="M6.9 4.896h6.6V9.67s-1.68.506-3.3 1.336C9.004 10.12 6.9 9.67 6.9 9.67V4.896z" fill="#fff"/>
    </mask>
    <g mask="url(#b)">
      <path fill="#3D58DB" d="M6.9 8.021h6.6v3.125H6.9z"/>
      <path fill="#FD1900" d="M6.9 4.896h6.6v3.125H6.9z"/>
      <path fill-rule="evenodd" clip-rule="evenodd" d="M9.867 6.301l-.5.042.288-.39-.307-.402.502.064.193-.444.214.454.5-.042-.288.39.307.403-.502-.065-.193.444-.214-.454z" fill="#FDFF00"/>
      <path fill-rule="evenodd" clip-rule="evenodd" d="M8.969 5.42s-1.344.817-.896 1.404c.448.587 1.012.662 1.012.662s-1.375 2.062 1.044 3.24c2.59-1.137 1.228-3.24 1.228-3.24s.798-.176.957-.81c.16-.635-1.042-1.363-1.042-1.363s.75 1.087.579 1.362c-.171.276-1.089.556-1.722.556s-1.61-.178-1.768-.659c-.158-.481.608-1.152.608-1.152z" fill="#FDFF00"/>
      <path fill-rule="evenodd" clip-rule="evenodd" d="M7.725 7.5l.825.52-.825.522L6.9 8.02l.825-.521zm4.95 0l.825.52-.825.522-.825-.521.825-.521zM7.7 9.563a.25.25 0 100-.5.25.25 0 000 .5zm5.319-.473c-.215-.175-.544-.124-.735.112-.191.236-.172.568.042.742.117.095.056-.28.233-.52.148-.2.558-.255.46-.335z" fill="#FDFF00"/>
    </g>
    <path fill-rule="evenodd" clip-rule="evenodd" d="M2.96 7.206s.66.778 1.28.524c.62-.255.47-1.168.47-1.168l-.47.426h-.4v.218l-.313-.218v.218H2.96zm.446 1.197s.803.7 1.344.502c.541-.198.405-1.146.405-1.146l-.47.426h-.4v.218l-.312-.218v.218h-.567zm2.162 1.589c-.54.198-1.344-.503-1.344-.503h.567v-.217l.313.217v-.217h.4l.47-.426s.135.948-.406 1.146z" fill="#048F02"/>
    <path fill-rule="evenodd" clip-rule="evenodd" d="M8.737 1.405h-.625v.373h-.294v.625h.294v1.09h.625v-1.09h.358v-.625h-.358v-.373z" fill="#FDFF00"/>
    <path fill-rule="evenodd" clip-rule="evenodd" d="M9.474 2.115l-1.448.373 1.448.458v-.83z" fill="#DB4400"/>
  </g>
</svg>
